symbolic/status/network-cellular-error-symbolic.svg

<svg width="16" height="16" xmlns="http://www.w3.org/2000/svg"><g transform="translate(-260 327)" color="#dedede" fill="#dedede"><path d="M270.5-324c-.277 0-.5.223-.5.5v11c0 .277.223.5.5.5h.5v-3h.242l-.242-1.938V-322h1v-1.5c0-.277-.223-.5-.5-.5h-1z"/><rect x="267" y="-321" width="2" height="9" ry=".5" overflow="visible"/><rect x="264" y="-318" width="2" height="6" ry=".5" overflow="visible"/><rect x="261" y="-315" width="2" height="3" ry=".5" overflow="visible"/><path d="M273.5-327c-.277 0-.5.223-.5.5v4.5h2v-4.5c0-.277-.223-.5-.5-.5h-1zm1.5 10.062l-.242 1.938H275v-1.938z"/></g><path class="warning" d="M12 6v4l.25 2h1.5l.25-2V6zm0 7v2h2v-2z" fill="#f55"/></svg>

<svg xmlns="http://www.w3.org/2000/svg" width="16" height="16" version="1.1">
 <path style="fill:#dfdfdf;opacity:0.3" d="M 15 1 L 11 5 L 15 5 L 15 1 z M 11 5 L 1 15 L 11 15 L 11 5 z"/>
 <path style="fill:#f44336" class="error" d="M 12,6 V 10 L 12.25,12 H 13.75 L 14,10 V 6 Z M 12,13 V 15 H 14 V 13 Z"/>
</svg>
